src/features/Share/img/qr-code-icon.svg

<svg width="17" height="17" viewBox="0 0 17 17" fill="none" xmlns="http://www.w3.org/2000/svg">
<path d="M5.23034 0.213989H2.81344C1.63555 0.213989 0.637641 0.992216 0.318594 2.05589C0.285599 2.16592 0.259844 2.279 0.241937 2.39459C0.222201 2.52215 0.211914 2.65276 0.211914 2.78573V5.26C0.211914 6.67876 1.37929 7.8325 2.81344 7.8325L4.02189 7.83273L5.23034 7.83243C6.66442 7.83243 7.83187 6.67869 7.83187 5.25993V2.78573C7.83187 1.36765 6.6645 0.213989 5.23034 0.213989ZM6.68888 5.26C6.68888 6.04821 6.03463 6.68951 5.23004 6.68951L4.02189 6.68974L2.81375 6.68943C2.00916 6.68943 1.35491 6.04814 1.35491 5.26V2.78573C1.35491 2.53953 1.41876 2.30773 1.53116 2.10519C1.63936 1.91035 1.79245 1.74278 1.97677 1.61591C2.21375 1.45277 2.50232 1.35698 2.81337 1.35698H5.23034C6.03463 1.35698 6.68888 1.9979 6.68888 2.78573V5.26Z" fill="black"/>
<path d="M14.1854 0.213989H11.7685C10.5906 0.213989 9.59272 0.992216 9.27367 2.05589C9.24068 2.16592 9.21492 2.279 9.19701 2.39459C9.17728 2.52215 9.16699 2.65276 9.16699 2.78573V5.26C9.16699 6.67876 10.3344 7.8325 11.7685 7.8325L12.977 7.83273L14.1854 7.83243C15.6195 7.83243 16.787 6.67869 16.787 5.25993V2.78573C16.787 1.36765 15.6196 0.213989 14.1854 0.213989ZM15.644 5.26C15.644 6.04821 14.9897 6.68951 14.1851 6.68951L12.977 6.68974L11.7688 6.68943C10.9642 6.68943 10.31 6.04814 10.31 5.26V2.78573C10.31 2.53953 10.3738 2.30773 10.4862 2.10519C10.5944 1.91035 10.7475 1.74278 10.9319 1.61591C11.1688 1.45277 11.4574 1.35698 11.7684 1.35698H14.1854C14.9897 1.35698 15.644 1.9979 15.644 2.78573V5.26Z" fill="black"/>
<path d="M5.23132 9.16687H2.81442C1.63653 9.16687 0.638618 9.9451 0.31957 11.0088C0.286576 11.1188 0.26082 11.2319 0.242913 11.3475C0.223178 11.475 0.212891 11.6056 0.212891 11.7386V14.2129C0.212891 15.6316 1.38027 16.7854 2.81442 16.7854L4.02287 16.7856L5.23132 16.7853C6.6654 16.7853 7.83285 15.6316 7.83285 14.2128V11.7386C7.83285 10.3205 6.66547 9.16687 5.23132 9.16687ZM6.68986 14.2129C6.68986 15.0011 6.03561 15.6424 5.23102 15.6424L4.02287 15.6426L2.81473 15.6423C2.01013 15.6423 1.35588 15.001 1.35588 14.2129V11.7386C1.35588 11.4924 1.41974 11.2606 1.53213 11.0581C1.64034 10.8632 1.79342 10.6957 1.97775 10.5688C2.21473 10.4056 2.5033 10.3099 2.81435 10.3099H5.23132C6.03561 10.3099 6.68986 10.9508 6.68986 11.7386V14.2129Z" fill="black"/>
<path d="M10.4491 12.007C10.4491 12.007 10.4491 12.007 10.4491 12.007C10.0808 12.007 9.78125 11.7134 9.78125 11.3527V10.2203C9.78125 10.1077 9.81054 10.0017 9.86181 9.9089C9.91133 9.81962 9.98143 9.74289 10.0658 9.685C10.1743 9.61036 10.3065 9.56641 10.4488 9.56641H11.555C11.923 9.56641 12.2225 9.85972 12.2225 10.2203V11.3527C12.2225 11.7133 11.923 12.007 11.555 12.007H11.0019H10.4491C10.4491 12.007 10.4491 12.007 10.4491 12.007V12.007Z" fill="black"/>
<path d="M10.4491 16.0584C10.0808 16.0584 9.78125 15.7647 9.78125 15.4041V14.2717C9.78125 14.1591 9.81054 14.0531 9.86181 13.9603C9.91133 13.871 9.98143 13.7943 10.0658 13.7364C10.1743 13.6618 10.3065 13.6178 10.4488 13.6178H11.555C11.923 13.6178 12.2225 13.9111 12.2225 14.2717V15.4041C12.2225 15.7647 11.923 16.0584 11.555 16.0584H11.0019H10.4491V16.0584Z" fill="black"/>
<path d="M14.7128 12.0068C14.3445 12.0068 14.0449 11.7131 14.0449 11.3525V10.2201C14.0449 10.1074 14.0742 10.0014 14.1255 9.90865C14.175 9.81937 14.2451 9.74264 14.3295 9.68475C14.438 9.61012 14.5701 9.56616 14.7124 9.56616H15.8187C16.1866 9.56616 16.4862 9.85947 16.4862 10.2201V11.3525C16.4862 11.7131 16.1866 12.0067 15.8187 12.0067H15.2656H14.7128V12.0068Z" fill="black"/>
<path d="M14.7128 16.0584C14.3445 16.0584 14.0449 15.7647 14.0449 15.4041V14.2717C14.0449 14.1591 14.0742 14.0531 14.1255 13.9603C14.175 13.871 14.2451 13.7943 14.3295 13.7364C14.438 13.6618 14.5701 13.6178 14.7124 13.6178H15.8187C16.1866 13.6178 16.4862 13.9111 16.4862 14.2717V15.4041C16.4862 15.7647 16.1866 16.0584 15.8187 16.0584H15.2656H14.7128V16.0584Z" fill="black"/>
</svg>

<svg xmlns="http://www.w3.org/2000/svg" width="17" height="17" fill="none"><path fill="#000" d="M5.23.21H2.81A2.6 2.6 0 0 0 .21 2.8v2.47a2.59 2.59 0 0 0 2.6 2.57h2.42c1.43 0 2.6-1.15 2.6-2.57V2.79A2.59 2.59 0 0 0 5.23.2Zm1.46 5.05c0 .79-.66 1.43-1.46 1.43H2.81c-.8 0-1.46-.64-1.46-1.43V2.79a1.4 1.4 0 0 1 .63-1.17c.23-.17.52-.26.83-.26h2.42c.8 0 1.46.64 1.46 1.43v2.47ZM14.19.21h-2.42a2.6 2.6 0 0 0-2.6 2.58v2.47a2.59 2.59 0 0 0 2.6 2.57h2.42c1.43 0 2.6-1.15 2.6-2.57V2.79A2.59 2.59 0 0 0 14.19.2Zm1.45 5.05c0 .79-.65 1.43-1.45 1.43h-2.42c-.8 0-1.46-.64-1.46-1.43V2.79a1.4 1.4 0 0 1 .62-1.17c.24-.17.53-.26.84-.26h2.42c.8 0 1.45.64 1.45 1.43v2.47ZM5.23 9.17H2.81a2.6 2.6 0 0 0-2.6 2.57v2.47a2.59 2.59 0 0 0 2.6 2.58h2.42c1.44 0 2.6-1.16 2.6-2.58v-2.47a2.59 2.59 0 0 0-2.6-2.57ZM6.7 14.2c0 .8-.65 1.43-1.46 1.43H2.81c-.8 0-1.45-.64-1.45-1.43v-2.47a1.4 1.4 0 0 1 .62-1.17c.23-.16.52-.26.83-.26h2.42c.8 0 1.46.64 1.46 1.43v2.47ZM10.45 12a.66.66 0 0 1-.67-.65v-1.13a.64.64 0 0 1 .29-.54c.1-.07.24-.11.38-.11h1.1c.37 0 .67.29.67.65v1.13c0 .36-.3.66-.67.66h-1.1ZM10.45 16.06a.66.66 0 0 1-.67-.66v-1.13a.64.64 0 0 1 .29-.53c.1-.08.24-.12.38-.12h1.1c.37 0 .67.3.67.65v1.13c0 .36-.3.66-.67.66h-1.1ZM14.71 12a.66.66 0 0 1-.67-.65v-1.13a.64.64 0 0 1 .29-.54c.1-.07.24-.11.38-.11h1.1c.38 0 .68.29.68.65v1.13c0 .36-.3.66-.67.66H14.7ZM14.71 16.06a.66.66 0 0 1-.67-.66v-1.13a.64.64 0 0 1 .29-.53c.1-.08.24-.12.38-.12h1.1c.38 0 .68.3.68.65v1.13c0 .36-.3.66-.67.66H14.7Z"/></svg>
